svg/emoji_u1f60d.svg

<?xml version="1.0" encoding="UTF-8" standalone="no"?>
<svg
   width="128"
   height="128"
   style="enable-background:new 0 0 128 128;"
   version="1.1"
   id="svg65079"
   sodipodi:docname="emoji_u1f60d.svg"
   inkscape:version="1.2.2 (732a01da63, 2022-12-09)"
   xmlns:inkscape="http://www.inkscape.org/namespaces/inkscape"
   xmlns:sodipodi="http://sodipodi.sourceforge.net/DTD/sodipodi-0.dtd"
   xmlns="http://www.w3.org/2000/svg"
   xmlns:svg="http://www.w3.org/2000/svg">
  <defs
     id="defs65083" />
  <sodipodi:namedview
     id="namedview65081"
     pagecolor="#ffffff"
     bordercolor="#000000"
     borderopacity="0.25"
     inkscape:showpageshadow="2"
     inkscape:pageopacity="0.0"
     inkscape:pagecheckerboard="0"
     inkscape:deskcolor="#d1d1d1"
     showgrid="false"
     inkscape:zoom="4.2421874"
     inkscape:cx="52.920811"
     inkscape:cy="69.303869"
     inkscape:window-width="1366"
     inkscape:window-height="697"
     inkscape:window-x="-8"
     inkscape:window-y="-8"
     inkscape:window-maximized="1"
     inkscape:current-layer="svg65079" />
  <path
     d="M63.79,8.64C1.48,8.64,0,78.5,0,92.33c0,13.83,28.56,25.03,63.79,25.03 c35.24,0,63.79-11.21,63.79-25.03C127.58,78.5,126.11,8.64,63.79,8.64z"
     style="fill:#FCC21B;"
     id="path64971" />
  <g
     id="g65071"
     transform="translate(0,4.3337963)">
    <path
       d="m 45.06,30.55 c -3.37,0.93 -5.8,3.54 -6.61,6.68 -2.31,-2.23 -5.8,-3.22 -9.04,-2.3 -2.42,0.68 -4.43,2.23 -5.68,4.41 -1.24,2.17 -1.56,4.68 -0.89,7.07 2.97,10.85 21.03,15.3 21.79,15.49 0.19,0.05 0.38,0.04 0.56,0.01 0.23,-0.05 0.44,-0.16 0.61,-0.33 C 46.36,61.01 59.54,47.82 56.56,37 55.21,32.08 49.94,29.1 45.06,30.55 Z"
       style="fill:#d7598b"
       id="path65067" />
    <path
       d="m 82.77,30.64 c 3.39,0.87 5.86,3.44 6.72,6.56 2.27,-2.27 5.74,-3.32 9,-2.46 2.43,0.63 4.47,2.16 5.75,4.31 1.28,2.15 1.64,4.65 1.02,7.05 C 102.49,57 84.51,61.76 83.75,61.96 83.56,62.01 83.37,62.01 83.19,61.97 82.96,61.92 82.75,61.81 82.57,61.65 82,61.11 68.6,48.16 71.38,37.29 c 1.26,-4.95 6.48,-8.02 11.39,-6.65 z"
       style="fill:#d7598b"
       id="path65069" />
  </g>
  <g
     id="g65077"
     transform="translate(0,1.0405513)">
    <path
       id="path65073"
       style="fill:#ed6c30"
       d="m 46.613281,73.001953 c -0.368925,0.0084 -0.730547,0.05242 -1.083984,0.138672 -5.209995,1.259999 -7.379058,6.580164 -2.539063,14.660156 2.429998,4.039996 10.379542,10.5 21.019532,10.5 11.319988,0 18.459533,-6.190004 21.019531,-10.5 4.799995,-8.099992 2.670932,-13.400157 -2.539063,-14.660156 -3.769996,-0.919999 -8.33946,2.919767 -15.439453,4.509766 -1.109999,0.249999 -2.111016,0.340078 -3.041015,0.330078 -0.929999,0.01 -1.929064,-0.08008 -3.039063,-0.330078 -6.434368,-1.440936 -10.791146,-4.729195 -14.357422,-4.648438 z" />
  </g>
</svg>

<?xml version="1.0" encoding="UTF-8" standalone="no"?>
<svg
   width="128"
   height="128"
   style="enable-background:new 0 0 128 128;"
   version="1.1"
   id="svg65079"
   sodipodi:docname="emoji_u1f60d.svg"
   inkscape:version="1.2.2 (732a01da63, 2022-12-09)"
   xmlns:inkscape="http://www.inkscape.org/namespaces/inkscape"
   xmlns:sodipodi="http://sodipodi.sourceforge.net/DTD/sodipodi-0.dtd"
   xmlns="http://www.w3.org/2000/svg"
   xmlns:svg="http://www.w3.org/2000/svg">
  <defs
     id="defs65083" />
  <sodipodi:namedview
     id="namedview65081"
     pagecolor="#ffffff"
     bordercolor="#000000"
     borderopacity="0.25"
     inkscape:showpageshadow="2"
     inkscape:pageopacity="0.0"
     inkscape:pagecheckerboard="0"
     inkscape:deskcolor="#d1d1d1"
     showgrid="false"
     inkscape:zoom="2.9996795"
     inkscape:cx="59.839725"
     inkscape:cy="63.673468"
     inkscape:window-width="1366"
     inkscape:window-height="697"
     inkscape:window-x="-8"
     inkscape:window-y="-8"
     inkscape:window-maximized="1"
     inkscape:current-layer="svg65079" />
  <path
     d="M63.79,8.64C1.48,8.64,0,78.5,0,92.33c0,13.83,28.56,25.03,63.79,25.03 c35.24,0,63.79-11.21,63.79-25.03C127.58,78.5,126.11,8.64,63.79,8.64z"
     style="fill:#FCC21B;"
     id="path64971" />
  <g
     id="g65065">
    <g
       id="g65017">
      <path
         d="M109.54,94.9c-9.5,3.41-19.98-1.4-23.44-10.78c-3.44-9.37,1.43-19.74,10.93-23.17 c9.47-3.41,19.98,1.42,23.45,10.79C123.92,81.13,119.02,91.5,109.54,94.9z"
         style="fill:#FCC21B;"
         id="path64973" />
      <path
         d="M109.31,94.27c-9.15,3.29-19.24-1.35-22.56-10.37c-3.31-9.02,1.38-19,10.52-22.3 c9.12-3.28,19.23,1.37,22.57,10.39C123.15,81.01,118.43,90.99,109.31,94.27z"
         style="fill:#FCC01C;"
         id="path64975" />
      <path
         d="M109.07,93.63c-8.79,3.16-18.49-1.29-21.69-9.97C84.2,75,88.72,65.4,97.5,62.23 c8.77-3.15,18.48,1.31,21.69,9.98C122.37,80.89,117.84,90.49,109.07,93.63z"
         style="fill:#FCBE1C;"
         id="path64977" />
      <path
         d="M108.84,93c-8.44,3.03-17.74-1.24-20.81-9.57c-3.06-8.32,1.27-17.53,9.7-20.57 c8.41-3.03,17.74,1.26,20.82,9.58C121.6,80.77,117.26,89.98,108.84,93z"
         style="fill:#FBBB1D;"
         id="path64979" />
      <path
         d="M108.61,92.36c-8.08,2.9-17-1.19-19.93-9.17c-2.93-7.97,1.22-16.79,9.3-19.7 c8.06-2.9,16.99,1.21,19.94,9.18C120.83,80.65,116.67,89.47,108.61,92.36z"
         style="fill:#FBB91E;"
         id="path64981" />
      <path
         d="M108.37,91.73c-7.73,2.78-16.25-1.14-19.06-8.76c-2.8-7.62,1.17-16.05,8.89-18.84 c7.7-2.77,16.24,1.15,19.06,8.77C120.06,80.53,116.08,88.96,108.37,91.73z"
         style="fill:#FBB71E;"
         id="path64983" />
      <path
         d="M108.14,91.1c-7.37,2.65-15.5-1.09-18.18-8.36c-2.67-7.27,1.11-15.31,8.48-17.97 c7.35-2.64,15.5,1.1,18.19,8.37C119.29,80.41,115.49,88.46,108.14,91.1z"
         style="fill:#FBB51F;"
         id="path64985" />
      <path
         d="M107.9,90.46c-7.02,2.52-14.76-1.03-17.3-7.96c-2.54-6.92,1.06-14.57,8.07-17.1 c7-2.52,14.75,1.05,17.31,7.97C118.52,80.29,114.9,87.95,107.9,90.46z"
         style="fill:#FAB220;"
         id="path64987" />
      <path
         d="M107.67,89.83c-6.66,2.39-14.01-0.98-16.43-7.55c-2.41-6.57,1.01-13.84,7.66-16.24 c6.64-2.39,14,1,16.43,7.56C117.75,80.17,114.31,87.44,107.67,89.83z"
         style="fill:#FAB020;"
         id="path64989" />
      <path
         d="M107.44,89.19c-6.31,2.26-13.26-0.93-15.55-7.15c-2.28-6.22,0.95-13.1,7.25-15.37 c6.29-2.26,13.26,0.94,15.56,7.16C116.98,80.05,113.73,86.93,107.44,89.19z"
         style="fill:#FAAE21;"
         id="path64991" />
      <path
         d="M107.2,88.56c-5.95,2.14-12.51-0.88-14.68-6.75c-2.15-5.87,0.9-12.36,6.84-14.5 c5.93-2.13,12.51,0.89,14.68,6.76C116.2,79.93,113.14,86.43,107.2,88.56z"
         style="fill:#FAAC22;"
         id="path64993" />
      <path
         d="M106.97,87.92c-5.59,2.01-11.77-0.82-13.8-6.35c-2.03-5.51,0.85-11.62,6.44-13.64 c5.58-2.01,11.76,0.84,13.8,6.35C115.43,79.81,112.55,85.92,106.97,87.92z"
         style="fill:#F9A922;"
         id="path64995" />
      <path
         d="M106.74,87.29c-5.24,1.88-11.02-0.77-12.92-5.94c-1.9-5.16,0.79-10.88,6.03-12.77 c5.23-1.88,11.02,0.78,12.93,5.95C114.66,79.69,111.96,85.41,106.74,87.29z"
         style="fill:#F9A723;"
         id="path64997" />
      <path
         d="M106.5,86.65c-4.88,1.75-10.27-0.72-12.05-5.54c-1.77-4.81,0.74-10.14,5.62-11.91 c4.87-1.75,10.27,0.73,12.05,5.55C113.89,79.57,111.37,84.91,106.5,86.65z"
         style="fill:#F9A524;"
         id="path64999" />
      <path
         d="M106.27,86.02c-4.53,1.63-9.53-0.67-11.17-5.14c-1.64-4.46,0.68-9.41,5.21-11.04 c4.52-1.62,9.52,0.68,11.17,5.14C113.12,79.45,110.79,84.4,106.27,86.02z"
         style="fill:#F9A324;"
         id="path65001" />
      <path
         d="M106.03,85.39c-4.17,1.5-8.78-0.62-10.29-4.74c-1.51-4.11,0.63-8.67,4.8-10.17 c4.16-1.5,8.77,0.63,10.3,4.74C112.35,79.33,110.2,83.89,106.03,85.39z"
         style="fill:#F8A025;"
         id="path65003" />
      <path
         d="M105.8,84.75c-3.82,1.37-8.03-0.56-9.42-4.33c-1.38-3.76,0.58-7.93,4.39-9.31 c3.81-1.37,8.03,0.57,9.42,4.34C111.58,79.21,109.61,83.38,105.8,84.75z"
         style="fill:#F89E26;"
         id="path65005" />
      <path
         d="M105.57,84.12c-3.46,1.24-7.28-0.51-8.54-3.93c-1.25-3.41,0.52-7.19,3.98-8.44 c3.46-1.24,7.28,0.52,8.55,3.93C110.81,79.09,109.02,82.88,105.57,84.12z"
         style="fill:#F89C26;"
         id="path65007" />
      <path
         d="M105.33,83.48c-3.11,1.12-6.54-0.46-7.67-3.53c-1.13-3.06,0.47-6.45,3.57-7.58 c3.1-1.11,6.53,0.47,7.67,3.53C110.04,78.97,108.43,82.37,105.33,83.48z"
         style="fill:#F89A27;"
         id="path65009" />
      <path
         d="M105.1,82.85c-2.75,0.99-5.79-0.41-6.79-3.12c-1-2.71,0.42-5.72,3.17-6.71 c2.75-0.99,5.79,0.41,6.79,3.13C109.26,78.85,107.84,81.86,105.1,82.85z"
         style="fill:#F79728;"
         id="path65011" />
      <path
         d="M104.87,82.21c-2.4,0.86-5.04-0.35-5.91-2.72c-0.87-2.36,0.36-4.98,2.76-5.84 c2.39-0.86,5.04,0.36,5.92,2.72C108.49,78.73,107.26,81.36,104.87,82.21z"
         style="fill:#F79528;"
         id="path65013" />
      <path
         d="M104.63,81.58c-2.04,0.73-4.3-0.3-5.04-2.32c-0.74-2.01,0.31-4.24,2.35-4.98 c2.04-0.73,4.29,0.31,5.04,2.32C107.72,78.61,106.67,80.85,104.63,81.58z"
         style="fill:#F79329;"
         id="path65015" />
    </g>
    <g
       id="g65063">
      <path
         d="M31.54,94.9c-9.5,3.41-19.98-1.4-23.44-10.78c-3.44-9.37,1.43-19.74,10.93-23.17 c9.47-3.41,19.98,1.42,23.45,10.79C45.92,81.13,41.02,91.5,31.54,94.9z"
         style="fill:#FCC21B;"
         id="path65019" />
      <path
         d="M31.31,94.27c-9.15,3.29-19.24-1.35-22.56-10.37c-3.31-9.02,1.38-19,10.52-22.3 c9.12-3.28,19.23,1.37,22.57,10.39C45.15,81.01,40.43,90.99,31.31,94.27z"
         style="fill:#FCC01C;"
         id="path65021" />
      <path
         d="M31.07,93.63c-8.79,3.16-18.49-1.29-21.69-9.97C6.2,75,10.72,65.4,19.5,62.23 c8.77-3.15,18.48,1.31,21.69,9.98C44.37,80.89,39.84,90.49,31.07,93.63z"
         style="fill:#FCBE1C;"
         id="path65023" />
      <path
         d="M30.84,93c-8.44,3.03-17.74-1.24-20.81-9.57c-3.06-8.32,1.27-17.53,9.7-20.57 c8.41-3.03,17.74,1.26,20.82,9.58C43.6,80.77,39.26,89.98,30.84,93z"
         style="fill:#FBBB1D;"
         id="path65025" />
      <path
         d="M30.61,92.36c-8.08,2.9-17-1.19-19.93-9.17c-2.93-7.97,1.22-16.79,9.3-19.7 c8.06-2.9,16.99,1.21,19.94,9.18C42.83,80.65,38.67,89.47,30.61,92.36z"
         style="fill:#FBB91E;"
         id="path65027" />
      <path
         d="M30.37,91.73c-7.73,2.78-16.25-1.14-19.06-8.76c-2.8-7.62,1.17-16.05,8.89-18.84 c7.7-2.77,16.24,1.15,19.06,8.77C42.06,80.53,38.08,88.96,30.37,91.73z"
         style="fill:#FBB71E;"
         id="path65029" />
      <path
         d="M30.14,91.1c-7.37,2.65-15.5-1.09-18.18-8.36c-2.67-7.27,1.11-15.31,8.48-17.97 c7.35-2.64,15.5,1.1,18.19,8.37C41.29,80.41,37.49,88.46,30.14,91.1z"
         style="fill:#FBB51F;"
         id="path65031" />
      <path
         d="M29.9,90.46c-7.02,2.52-14.76-1.03-17.3-7.96c-2.54-6.92,1.06-14.57,8.07-17.1 c7-2.52,14.75,1.05,17.31,7.97C40.52,80.29,36.9,87.95,29.9,90.46z"
         style="fill:#FAB220;"
         id="path65033" />
      <path
         d="M29.67,89.83c-6.66,2.39-14.01-0.98-16.43-7.55c-2.41-6.57,1.01-13.84,7.66-16.24 c6.64-2.39,14,1,16.43,7.56C39.75,80.17,36.31,87.44,29.67,89.83z"
         style="fill:#FAB020;"
         id="path65035" />
      <path
         d="M29.44,89.19c-6.31,2.26-13.26-0.93-15.55-7.15c-2.28-6.22,0.95-13.1,7.25-15.37 c6.29-2.26,13.26,0.94,15.56,7.16C38.98,80.05,35.73,86.93,29.44,89.19z"
         style="fill:#FAAE21;"
         id="path65037" />
      <path
         d="M29.2,88.56c-5.95,2.14-12.51-0.88-14.68-6.75c-2.15-5.87,0.9-12.36,6.84-14.5 c5.93-2.13,12.51,0.89,14.68,6.76C38.2,79.93,35.14,86.43,29.2,88.56z"
         style="fill:#FAAC22;"
         id="path65039" />
      <path
         d="M28.97,87.92c-5.59,2.01-11.77-0.82-13.8-6.35c-2.03-5.51,0.85-11.62,6.44-13.64 c5.58-2.01,11.76,0.84,13.8,6.35C37.43,79.81,34.55,85.92,28.97,87.92z"
         style="fill:#F9A922;"
         id="path65041" />
      <path
         d="M28.74,87.29c-5.24,1.88-11.02-0.77-12.92-5.94c-1.9-5.16,0.79-10.88,6.03-12.77 c5.23-1.88,11.02,0.78,12.93,5.95C36.66,79.69,33.96,85.41,28.74,87.29z"
         style="fill:#F9A723;"
         id="path65043" />
      <path
         d="M28.5,86.65c-4.88,1.75-10.27-0.72-12.05-5.54c-1.77-4.81,0.74-10.14,5.62-11.91 c4.87-1.75,10.27,0.73,12.05,5.55C35.89,79.57,33.37,84.91,28.5,86.65z"
         style="fill:#F9A524;"
         id="path65045" />
      <path
         d="M28.27,86.02c-4.53,1.63-9.53-0.67-11.17-5.14c-1.64-4.46,0.68-9.41,5.21-11.04 c4.52-1.62,9.52,0.68,11.17,5.14C35.12,79.45,32.79,84.4,28.27,86.02z"
         style="fill:#F9A324;"
         id="path65047" />
      <path
         d="M28.03,85.39c-4.17,1.5-8.78-0.62-10.29-4.74c-1.51-4.11,0.63-8.67,4.8-10.17 c4.16-1.5,8.77,0.63,10.3,4.74C34.35,79.33,32.2,83.89,28.03,85.39z"
         style="fill:#F8A025;"
         id="path65049" />
      <path
         d="M27.8,84.75c-3.82,1.37-8.03-0.56-9.42-4.33c-1.38-3.76,0.58-7.93,4.39-9.31 c3.81-1.37,8.03,0.57,9.42,4.34C33.58,79.21,31.61,83.38,27.8,84.75z"
         style="fill:#F89E26;"
         id="path65051" />
      <path
         d="M27.57,84.12c-3.46,1.24-7.28-0.51-8.54-3.93c-1.25-3.41,0.52-7.19,3.98-8.44 c3.46-1.24,7.28,0.52,8.55,3.93C32.81,79.09,31.02,82.88,27.57,84.12z"
         style="fill:#F89C26;"
         id="path65053" />
      <path
         d="M27.33,83.48c-3.11,1.12-6.54-0.46-7.67-3.53c-1.13-3.06,0.47-6.45,3.57-7.58 c3.1-1.11,6.53,0.47,7.67,3.53C32.04,78.97,30.43,82.37,27.33,83.48z"
         style="fill:#F89A27;"
         id="path65055" />
      <path
         d="M27.1,82.85c-2.75,0.99-5.79-0.41-6.79-3.12c-1-2.71,0.42-5.72,3.17-6.71 c2.75-0.99,5.79,0.41,6.79,3.13C31.26,78.85,29.84,81.86,27.1,82.85z"
         style="fill:#F79728;"
         id="path65057" />
      <path
         d="M26.87,82.21c-2.4,0.86-5.04-0.35-5.91-2.72c-0.87-2.36,0.36-4.98,2.76-5.84 c2.39-0.86,5.04,0.36,5.92,2.72C30.49,78.73,29.26,81.36,26.87,82.21z"
         style="fill:#F79528;"
         id="path65059" />
      <path
         d="M26.63,81.58c-2.04,0.73-4.3-0.3-5.04-2.32c-0.74-2.01,0.31-4.24,2.35-4.98 c2.04-0.73,4.29,0.31,5.04,2.32C29.72,78.61,28.67,80.85,26.63,81.58z"
         style="fill:#F79329;"
         id="path65061" />
    </g>
  </g>
  <g
     id="g65071">
    <path
       d="M45.06,30.55c-3.37,0.93-5.8,3.54-6.61,6.68c-2.31-2.23-5.8-3.22-9.04-2.3 c-2.42,0.68-4.43,2.23-5.68,4.41c-1.24,2.17-1.56,4.68-0.89,7.07c2.97,10.85,21.03,15.3,21.79,15.49 c0.19,0.05,0.38,0.04,0.56,0.01c0.23-0.05,0.44-0.16,0.61-0.33C46.36,61.01,59.54,47.82,56.56,37 C55.21,32.08,49.94,29.1,45.06,30.55z"
       style="fill:#D7598B;"
       id="path65067" />
    <path
       d="M82.77,30.64c3.39,0.87,5.86,3.44,6.72,6.56c2.27-2.27,5.74-3.32,9-2.46 c2.43,0.63,4.47,2.16,5.75,4.31c1.28,2.15,1.64,4.65,1.02,7.05C102.49,57,84.51,61.76,83.75,61.96c-0.19,0.05-0.38,0.05-0.56,0.01 c-0.23-0.05-0.44-0.16-0.62-0.32C82,61.11,68.6,48.16,71.38,37.29C72.64,32.34,77.86,29.27,82.77,30.64z"
       style="fill:#D7598B;"
       id="path65069" />
  </g>
  <g
     id="g65077">
    <path
       id="path65073"
       style="fill:#ED6C30;"
       d="M 46.613281 73.001953 C 46.244356 73.010307 45.882734 73.054375 45.529297 73.140625 C 40.319302 74.400624 38.150239 79.720789 42.990234 87.800781 C 45.420232 91.840777 53.369776 98.300781 64.009766 98.300781 C 75.329754 98.300781 82.469299 92.110777 85.029297 87.800781 C 89.829292 79.700789 87.700229 74.400624 82.490234 73.140625 C 78.720238 72.220626 74.150774 76.060392 67.050781 77.650391 C 65.940782 77.90039 64.939765 77.990469 64.009766 77.980469 C 63.079767 77.990469 62.080702 77.90039 60.970703 77.650391 C 54.536335 76.209455 50.179557 72.921196 46.613281 73.001953 z " />
  </g>
</svg>
